X: 1
T:Lemmie Brezil's
M:4/4
L:1/8
R:Hornpipe
K:D
AG | F2A2B2A2 | defd B2 AG | FAdA Bcdf | e2d2e2  AG | F2A2B2A2 | defd B2
 AG | FAdA Bcdf | e2e2d2 :|
| fg | afdf afdA | defd B2 AG | FAdA Bcdf | e2d2e2 fg | afdf afdA | defd
 B2AG | FAdA Bcdf  e2e2d2 :|
